ES1T1/13/aimg/a1.svg

<svg clip-rule="evenodd" fill-rule="evenodd" viewBox="0 0 200 200" xmlns="http://www.w3.org/2000/svg"><path d="m58.49 154.48v-24.126h6.24v4.549c1.905-3.399 4.615-5.098 8.13-5.098 1.817 0 3.311.447 4.483 1.34 1.172.894 1.889 2.146 2.153 3.758 2.256-3.399 4.98-5.098 8.174-5.098 4.409 0 6.614 2.432 6.614 7.295v17.38h-6.241v-15.249c0-2.856-.952-4.284-2.856-4.284-1.948 0-3.845 1.406-5.691 4.218v15.315h-6.24v-15.249c0-2.871-.96-4.306-2.879-4.306s-3.801 1.413-5.647 4.24v15.315z" fill="none" stroke="#aae1fa" stroke-width="2" transform="matrix(4.16667 0 0 4.16667 -218.279 -475.873)"/><path d="m.09 0v-.536h.139v.101c.042-.076.103-.113.181-.113.04 0 .073.01.099.029.026.02.042.048.048.084.05-.076.111-.113.182-.113.098 0 .147.054.147.162v.386h-.139v-.339c0-.063-.021-.095-.063-.095-.044 0-.086.031-.127.094v.34h-.139v-.339c0-.064-.021-.096-.064-.096-.042 0-.084.032-.125.095v.34z" fill="#fff" fill-rule="nonzero" transform="matrix(187.50015 0 0 187.50015 8.492848 167.794182)"/></svg>

<?xml version="1.0" encoding="UTF-8" standalone="no"?>
<!DOCTYPE svg PUBLIC "-//W3C//DTD SVG 1.1//EN" "http://www.w3.org/Graphics/SVG/1.1/DTD/svg11.dtd">
<svg width="100%" height="100%" viewBox="0 0 200 200" version="1.1" xmlns="http://www.w3.org/2000/svg" xmlns:xlink="http://www.w3.org/1999/xlink" xml:space="preserve" xmlns:serif="http://www.serif.com/" style="fill-rule:evenodd;clip-rule:evenodd;">
    <g transform="matrix(4.16667,0,0,4.16667,-218.279,-475.873)">
        <g>
            <path d="M58.49,154.48L58.49,130.354L64.73,130.354L64.73,134.903C66.635,131.504 69.345,129.805 72.86,129.805C74.677,129.805 76.171,130.252 77.343,131.145C78.515,132.039 79.232,133.291 79.496,134.903C81.752,131.504 84.476,129.805 87.67,129.805C92.079,129.805 94.284,132.237 94.284,137.1L94.284,154.48L88.043,154.48L88.043,139.231C88.043,136.375 87.091,134.947 85.187,134.947C83.239,134.947 81.342,136.353 79.496,139.165L79.496,154.48L73.256,154.48L73.256,139.231C73.256,136.36 72.296,134.925 70.377,134.925C68.458,134.925 66.576,136.338 64.73,139.165L64.73,154.48L58.49,154.48Z" style="fill:none;fill-rule:nonzero;stroke:rgb(170,225,250);stroke-width:2px;"/>
        </g>
        <g transform="matrix(45,0,0,45,54.4252,154.48)">
            <path d="M0.09,0L0.09,-0.536L0.229,-0.536L0.229,-0.435C0.271,-0.511 0.332,-0.548 0.41,-0.548C0.45,-0.548 0.483,-0.538 0.509,-0.519C0.535,-0.499 0.551,-0.471 0.557,-0.435C0.607,-0.511 0.668,-0.548 0.739,-0.548C0.837,-0.548 0.886,-0.494 0.886,-0.386L0.886,0L0.747,0L0.747,-0.339C0.747,-0.402 0.726,-0.434 0.684,-0.434C0.64,-0.434 0.598,-0.403 0.557,-0.34L0.557,0L0.418,0L0.418,-0.339C0.418,-0.403 0.397,-0.435 0.354,-0.435C0.312,-0.435 0.27,-0.403 0.229,-0.34L0.229,0L0.09,0Z" style="fill:white;fill-rule:nonzero;"/>
        </g>
    </g>
</svg>
